_includes/icons/ios-qr-code.svg

<svg fill="#666" height="50" viewBox="0 0 50 50" width="50" xmlns="http://www.w3.org/2000/svg"><path d="m4 4v1 13h14v-14zm28 0v1 13h14v-14zm-26 2h10v10h-10zm14 0v1 5h4v3h-4v1 4h-9v1 3h-4v1 5h6v-4h3v4h6v-8h2v4h7v3h5v3h-8v1 3h-4v1 5h6v-4h6v8h10v-10h-8v-2h8v-10h-6v1 2h-2v-7h-12v-3h4v-7h-4v-4zm14 0h10v10h-10zm-26 2v1 5h6v-6zm14 0h2v2h-2zm14 0v1 5h6v-6zm-26 2h2v2h-2zm28 0h2v2h-2zm-12 2h2v3h-2zm-4 5h2v3h-2zm-9 5h7v6h-2v-4h-5zm13 0h10v5h-3v-3h-7zm-17 4h2v2h-2zm33 0h2v6h-6v-3h4zm-38 6v1 13h14v-14zm2 2h10v10h-10zm24 0h6v2h-6zm-22 2v1 5h6v-6zm2 2h2v2h-2zm16 0h2v2h-2zm12 0h6v6h-6z"/></svg>

<svg xmlns="http://www.w3.org/2000/svg" viewBox="0 0 50 50" width="50" height="50" fill="#666"><path style="line-height:normal;text-indent:0;text-align:start;text-decoration-line:none;text-decoration-style:solid;text-decoration-color:#000;text-transform:none;block-progression:tb;isolation:auto;mix-blend-mode:normal" d="M 4 4 L 4 5 L 4 18 L 18 18 L 18 4 L 4 4 z M 32 4 L 32 5 L 32 18 L 46 18 L 46 4 L 32 4 z M 6 6 L 16 6 L 16 16 L 6 16 L 6 6 z M 20 6 L 20 7 L 20 12 L 24 12 L 24 15 L 20 15 L 20 16 L 20 20 L 11 20 L 11 21 L 11 24 L 7 24 L 7 25 L 7 30 L 13 30 L 13 26 L 16 26 L 16 30 L 22 30 L 22 22 L 24 22 L 24 26 L 31 26 L 31 29 L 36 29 L 36 32 L 28 32 L 28 33 L 28 36 L 24 36 L 24 37 L 24 42 L 30 42 L 30 38 L 36 38 L 36 46 L 46 46 L 46 36 L 38 36 L 38 34 L 46 34 L 46 24 L 40 24 L 40 25 L 40 27 L 38 27 L 38 20 L 26 20 L 26 17 L 30 17 L 30 10 L 26 10 L 26 6 L 20 6 z M 34 6 L 44 6 L 44 16 L 34 16 L 34 6 z M 8 8 L 8 9 L 8 14 L 14 14 L 14 8 L 8 8 z M 22 8 L 24 8 L 24 10 L 22 10 L 22 8 z M 36 8 L 36 9 L 36 14 L 42 14 L 42 8 L 36 8 z M 10 10 L 12 10 L 12 12 L 10 12 L 10 10 z M 38 10 L 40 10 L 40 12 L 38 12 L 38 10 z M 26 12 L 28 12 L 28 15 L 26 15 L 26 12 z M 22 17 L 24 17 L 24 20 L 22 20 L 22 17 z M 13 22 L 20 22 L 20 28 L 18 28 L 18 24 L 13 24 L 13 22 z M 26 22 L 36 22 L 36 27 L 33 27 L 33 24 L 26 24 L 26 22 z M 9 26 L 11 26 L 11 28 L 9 28 L 9 26 z M 42 26 L 44 26 L 44 32 L 38 32 L 38 29 L 42 29 L 42 26 z M 4 32 L 4 33 L 4 46 L 18 46 L 18 32 L 4 32 z M 6 34 L 16 34 L 16 44 L 6 44 L 6 34 z M 30 34 L 36 34 L 36 36 L 30 36 L 30 34 z M 8 36 L 8 37 L 8 42 L 14 42 L 14 36 L 8 36 z M 10 38 L 12 38 L 12 40 L 10 40 L 10 38 z M 26 38 L 28 38 L 28 40 L 26 40 L 26 38 z M 38 38 L 44 38 L 44 44 L 38 44 L 38 38 z"/></svg>
